X:158
T:Flop Eared Mule
C:Traditional
N:Arranged for guitar by Mike Stangeland
R:bluegrass
L:1/8
Q:1/4=290
M:4/4
K:D
z6 de |: "C"f2 e2 d2 B2 | AB AG FE D2 | "G"A,B, CD ED CE | "C"DE FG "G"A2 de | 
"C"fa fe de dB | AB AG FE D2 | "G"A,B, CD ED CE |1 D"C"F (3EFE D2 de :|2 D"C"F (3EFE D2 cd | 
|: "G"[e2c2] [c2c2] [e2c2] [c2c2] | ef ed cB A2 | "D"EF ^GA BA GB | "G"AB cd e2 cd | 
[e2c2] [c2c2] [e2c2] [c2c2] | ef ed cB A2 | "D"EF ^GA BA GB |1 A"G"c (3BcB A2 cd :|2 A"G"c (3BcB A2 de | 


